src/assets/TITLE.svg

<svg width="218" height="228" viewBox="0 0 218 228" fill="none" xmlns="http://www.w3.org/2000/svg">
<path d="M10.3324 31.9481L11.3523 24.5863C12.2479 18.1224 16.988 12.9688 25.1128 14.0945C31.0381 14.9154 34.7712 18.6809 35.6381 23.6505L28.761 25.0767C28.5658 22.8537 27.0003 20.944 24.1723 20.5522C20.7159 20.0733 18.7516 22.3632 18.3972 24.9219L17.2217 33.4058C16.8486 36.0991 18.1038 38.9266 21.6051 39.4117C24.5678 39.8221 27.3276 37.734 27.7194 34.906L27.7505 34.6816L21.3763 33.7984L22.1724 28.0527L35.3697 29.8811L34.5052 36.1207C33.5972 42.6744 27.4491 46.7636 20.7158 45.8307C12.591 44.705 9.34353 39.0853 10.3324 31.9481ZM36.4066 47.7302L40.7352 16.4877L54.5609 18.4032C60.0373 19.162 64.1944 23.1692 63.361 29.1843C62.8448 32.91 60.4219 35.8683 56.4274 36.9619L60.5567 51.0761L52.7461 49.994L49.4813 37.2348L44.9924 36.6129L43.3195 48.6879L36.4066 47.7302ZM45.8507 30.4183L51.5515 31.2081C54.0653 31.5564 55.8492 30.5683 56.1726 28.2341C56.496 25.8999 55.0555 24.7395 52.7213 24.4161L46.796 23.5952L45.8507 30.4183ZM60.6619 51.0907L77.1104 21.5274L82.5419 22.2799L90.3333 55.2016L83.0613 54.1941L81.6102 47.4965L71.1512 46.0474L67.9339 52.0982L60.6619 51.0907ZM74.1144 40.5104L80.2641 41.3625L79.5945 37.6097L78.6123 31.16L78.4328 31.1352L75.7914 36.9913L74.1144 40.5104ZM91.7318 55.3954L96.0604 24.1529L108.943 25.9378C115.542 26.852 119.361 31.3157 118.503 37.5103C117.72 43.1663 112.299 46.6244 106.329 45.7972L100.224 44.9514L98.6447 56.3531L91.7318 55.3954ZM101.083 38.7568L106.873 39.5591C109.163 39.8762 111.202 38.6948 111.519 36.4055C111.867 33.8917 110.464 32.4621 107.726 32.0827L102.115 31.3053L101.083 38.7568ZM117.29 58.9364L121.619 27.694L128.532 28.6517L126.797 41.1756L137.031 42.5936L138.766 30.0697L145.589 31.015L141.261 62.2575L134.438 61.3122L136.204 48.5638L125.969 47.1458L124.203 59.8942L117.29 58.9364ZM145.877 62.897L150.205 31.6545L157.118 32.6123L152.789 63.8548L145.877 62.897ZM157.673 52.3619L158.693 45.0001C159.589 38.5362 164.329 33.3826 172.454 34.5083C178.379 35.3292 182.112 39.0947 182.979 44.0643L176.102 45.4905C175.907 43.2675 174.341 41.3578 171.513 40.966C168.057 40.4871 166.093 42.777 165.738 45.3357L164.563 53.8196C164.189 56.5129 165.451 59.2955 168.907 59.7744C171.691 60.1599 173.755 58.7989 174.566 56.578L180.771 59.9998C178.567 64.6812 173.892 67.053 168.057 66.2445C159.932 65.1189 156.684 59.4991 157.673 52.3619Z" fill="#FBEDFF"/>
<path d="M180.038 63.5125L184.767 58.7691C187.324 61.7769 190.238 62.8669 193.425 63.3085C196.433 63.7252 198.338 62.5251 198.568 60.8642C198.779 59.338 198.497 57.7434 194.776 56.8619C188.932 55.4574 183.563 52.9293 184.533 45.9267C185.454 39.2832 191.565 37.1104 196.682 37.8193C200.498 38.348 204.304 39.6073 207.321 42.267L203.369 47.3468C200.667 45.051 197.646 44.4036 195.985 44.1735C192.573 43.7009 191.625 45.2622 191.451 46.5191C191.177 48.4942 192.494 49.2257 197.544 50.7489C202.595 52.2721 206.779 55.0935 205.902 61.4228C205 67.9317 198.294 70.4339 192.189 69.5881C187.97 69.0034 183.664 67.7206 180.038 63.5125Z" fill="#D3A7E0"/>
<path d="M13.2822 95.2077L15.7739 63.7654L22.0533 64.263L25.5767 73.725L28.8942 83.489L29.0749 83.5033L33.7535 74.373L38.6328 65.5769L45.1833 66.096L42.6916 97.5383L35.7797 96.9906L36.9647 82.0374L36.8327 81.9815L33.4819 88.1257L31.0078 92.3847L25.677 91.9622L23.8322 87.1337L21.5633 80.7714L21.4171 80.8962L20.2392 95.759L13.2822 95.2077ZM46.455 85.7443L47.0421 78.3355C47.5577 71.8302 51.9878 66.4079 60.1646 67.0559C67.7541 67.6573 72.0859 73.2285 71.5274 80.2759L70.9403 87.6847C70.346 95.1839 65.0875 99.5859 57.6335 98.9952C49.4567 98.3472 45.9359 92.2948 46.455 85.7443ZM63.8083 87.6196L64.4849 79.0814C64.7033 76.3256 62.9469 73.8226 59.6039 73.5576C56.1254 73.282 54.2986 75.6829 54.0945 78.2579L53.4179 86.7962C53.2031 89.5067 54.6253 92.2106 58.1039 92.4863C61.4469 92.7512 63.572 90.6012 63.8083 87.6196ZM96.6276 101.813L99.1193 70.3702L106.076 70.9216L103.585 102.364L96.6276 101.813ZM107.606 90.5904L108.194 83.1816C108.709 76.6763 113.139 71.254 121.316 71.902C128.906 72.5034 133.237 78.0745 132.679 85.122L132.092 92.5308C131.497 100.03 126.239 104.432 118.785 103.841C110.608 103.193 107.087 97.1409 107.606 90.5904ZM124.96 92.4657L125.636 83.9274C125.855 81.1717 124.098 78.6686 120.755 78.4037C117.277 78.128 115.45 80.529 115.246 83.104L114.569 91.6422C114.354 94.3528 115.777 97.0567 119.255 97.3324C122.598 97.5973 124.723 95.4473 124.96 92.4657ZM134.348 104.802L136.84 73.3595L143.029 73.8499L148.862 83.9951L154.167 93.9165L154.261 93.8785L155.768 74.8595L162.725 75.4108L160.234 106.853L154.045 106.363L146.965 94.1641L142.906 86.2961L142.812 86.3341L141.305 105.353L134.348 104.802Z" fill="#FACADE"/>
<path d="M78.979 100.414L80.9767 75.2059L72.3933 74.5257L72.8873 68.2914L96.966 70.1996L96.472 76.4339L87.8886 75.7537L85.8909 100.962L78.979 100.414Z" fill="#FFF5F9"/>
<path d="M4.6978 190.846L7.94114 159.472L20.4275 160.763C25.1155 161.247 28.9503 163.375 30.5097 167.682C31.3989 170.098 31.1629 173.262 30.7621 177.139C30.3101 181.511 29.8891 184.703 28.6007 187.03C26.0379 191.548 21.4665 192.579 16.4179 192.057L4.6978 190.846ZM12.2828 185.343L16.8356 185.813C21.4785 186.293 23.1058 183.774 23.5252 179.717L24.117 173.992C24.5643 169.664 23.0253 167.364 18.6529 166.912L14.2353 166.455L12.2828 185.343ZM32.5206 193.722L35.764 162.348L57.9419 164.641L57.2989 170.862L42.0628 169.286L41.4057 175.642L54.388 176.984L53.7682 182.98L40.7859 181.638L40.1056 188.219L55.3417 189.794L54.6986 196.015L32.5206 193.722ZM54.7105 191.916L59.2723 187.011C61.932 189.929 64.8823 190.917 68.0828 191.248C71.1029 191.56 72.965 190.295 73.1374 188.627C73.2959 187.094 72.9584 185.51 69.2092 184.758C63.3196 183.557 57.8667 181.217 58.5937 174.185C59.2834 167.513 65.3157 165.13 70.4545 165.661C74.2861 166.057 78.1332 167.184 81.2406 169.737L77.4669 174.951C74.6876 172.75 71.6456 172.208 69.9778 172.036C66.5519 171.681 65.6582 173.275 65.5278 174.537C65.3227 176.52 66.6642 177.206 71.7642 178.553C76.8642 179.9 81.1436 182.575 80.4865 188.931C79.8108 195.467 73.1956 198.2 67.0651 197.566C62.8279 197.128 58.4802 195.995 54.7105 191.916ZM82.1826 198.856L85.426 167.482L92.3679 168.2L89.1245 199.573L82.1826 198.856ZM93.7875 187.937L94.5517 180.544C95.2228 174.053 99.7814 168.738 107.94 169.582C113.891 170.197 117.752 173.831 118.791 178.767L111.967 180.431C111.695 178.216 110.064 176.362 107.224 176.068C103.753 175.709 101.87 178.066 101.604 180.635L100.723 189.155C100.444 191.86 101.796 194.642 105.312 195.005C108.287 195.313 110.973 193.13 111.267 190.29L111.29 190.065L104.889 189.403L105.485 183.634L118.738 185.004L118.09 191.269C117.41 197.851 111.407 202.15 104.646 201.451C96.4868 200.608 93.0466 195.104 93.7875 187.937ZM120.393 202.806L123.636 171.432L129.812 172.071L135.401 182.352L140.467 192.398L140.562 192.362L142.524 173.385L149.466 174.102L146.222 205.476L140.047 204.838L133.261 192.473L129.391 184.51L129.297 184.546L127.335 203.524L120.393 202.806ZM150.593 205.928L153.836 174.554L176.014 176.847L175.371 183.068L160.135 181.492L159.478 187.848L172.46 189.19L171.84 195.186L158.858 193.844L158.178 200.425L173.414 202L172.771 208.221L150.593 205.928Z" fill="#FACADE"/>
<path d="M175.158 208.467L178.402 177.094L192.285 178.529C197.785 179.097 202.078 182.958 201.454 188.999C201.067 192.74 198.748 195.78 194.794 197.012L199.41 210.974L191.566 210.164L187.861 197.525L183.354 197.059L182.1 209.185L175.158 208.467ZM183.997 190.839L189.721 191.43C192.246 191.691 193.994 190.642 194.237 188.298C194.479 185.954 192.999 184.844 190.655 184.602L184.705 183.987L183.997 190.839ZM202.49 211.293L203.259 203.855L210.877 204.643L210.109 212.08L202.49 211.293Z" fill="#FFF5F9"/>
<path d="M13.3228 145.593L13.0322 114.054L19.3311 113.996L23.6751 123.11L27.8407 132.544L28.022 132.542L31.8772 123.035L35.9619 113.843L42.5326 113.782L42.8232 145.322L35.8899 145.385L35.7517 130.386L35.6154 130.342L32.8194 136.758L30.7304 141.218L25.3832 141.268L23.1198 136.621L20.2987 130.483L20.164 130.62L20.3014 145.529L13.3228 145.593ZM46.9572 145.284L46.6666 113.744L68.9618 113.539L69.0194 119.792L53.7028 119.933L53.7616 126.323L66.8125 126.202L66.868 132.229L53.8172 132.35L53.8781 138.966L69.1948 138.825L69.2524 145.078L46.9572 145.284ZM71.6523 145.056L71.3617 113.516L83.9141 113.401C88.6269 113.357 92.6759 115.042 94.7078 119.148C95.8619 121.448 95.9818 124.619 96.0177 128.517C96.0582 132.912 95.9972 136.13 94.9775 138.587C92.9368 143.364 88.5097 144.901 83.4344 144.947L71.6523 145.056ZM78.5733 138.738L83.1502 138.696C87.8177 138.653 89.1525 135.967 89.1149 131.888L89.0619 126.133C89.0218 121.783 87.2349 119.67 82.8393 119.71L78.3984 119.751L78.5733 138.738ZM99.7582 144.797L99.4676 113.257L106.446 113.193L106.737 144.733L99.7582 144.797Z" fill="#FBEDFF"/>
<path d="M107.867 144.722L119.812 113.07L125.295 113.02L137.821 144.446L130.48 144.514L128.064 138.101L117.505 138.198L115.208 144.655L107.867 144.722ZM119.626 132.287L125.834 132.23L124.623 128.616L122.707 122.379L122.526 122.381L120.77 128.56L119.626 132.287Z" fill="#D3A7E0"/>
</svg>

<svg width="218" height="228" fill="none" xmlns="http://www.w3.org/2000/svg"><path d="m10.332 31.948 1.02-7.362c.896-6.464 5.636-11.617 13.76-10.491 5.926.82 9.66 4.586 10.526 9.556l-6.877 1.426c-.195-2.223-1.76-4.133-4.589-4.525-3.456-.479-5.42 1.811-5.775 4.37l-1.175 8.484c-.373 2.693.882 5.52 4.383 6.006 2.963.41 5.723-1.678 6.114-4.506l.031-.224-6.374-.884.796-5.745L35.37 29.88l-.865 6.24c-.908 6.553-7.056 10.643-13.79 9.71-8.124-1.126-11.371-6.746-10.383-13.883zM36.407 47.73l4.328-31.242 13.826 1.915c5.476.759 9.633 4.766 8.8 10.781-.516 3.726-2.94 6.684-6.934 7.778l4.13 14.114-7.81-1.082-3.266-12.76-4.489-.621-1.672 12.075-6.913-.958zm9.444-17.312 5.7.79c2.514.348 4.298-.64 4.622-2.974.323-2.334-1.117-3.495-3.452-3.818l-5.925-.82-.945 6.822zm14.81 20.673 16.45-29.564 5.43.753 7.792 32.922-7.272-1.008-1.45-6.698-10.46-1.449-3.217 6.051-7.272-1.007zm13.453-10.58 6.15.851-.67-3.752-.982-6.45-.18-.025-2.64 5.856-1.678 3.52zm17.618 14.884 4.328-31.242 12.883 1.785c6.599.914 10.418 5.378 9.56 11.572-.783 5.656-6.204 9.114-12.174 8.287l-6.105-.846-1.58 11.402-6.912-.958zm9.351-16.638 5.79.802c2.29.317 4.329-.864 4.646-3.153.348-2.514-1.055-3.944-3.793-4.323l-5.611-.778-1.032 7.452zm16.207 20.18 4.329-31.243 6.913.958-1.735 12.524 10.234 1.418 1.735-12.524 6.823.945-4.328 31.242-6.823-.945 1.766-12.748-10.235-1.418-1.766 12.748-6.913-.958zm28.587 3.96 4.328-31.242 6.913.957-4.329 31.243-6.912-.958zm11.796-10.535 1.02-7.362c.896-6.464 5.636-11.617 13.761-10.492 5.925.821 9.658 4.587 10.525 9.556l-6.877 1.426c-.195-2.223-1.761-4.132-4.589-4.524-3.456-.479-5.42 1.811-5.775 4.37l-1.175 8.484c-.374 2.693.888 5.475 4.344 5.954 2.784.386 4.848-.975 5.659-3.196L180.771 60c-2.204 4.681-6.879 7.053-12.714 6.245-8.125-1.126-11.373-6.746-10.384-13.883z" fill="#FBEDFF"/><path d="m180.038 63.513 4.729-4.744c2.557 3.008 5.471 4.098 8.658 4.54 3.008.416 4.913-.784 5.143-2.445.211-1.526-.071-3.12-3.792-4.002-5.844-1.405-11.213-3.933-10.243-10.935.921-6.644 7.032-8.817 12.149-8.108 3.816.529 7.622 1.788 10.639 4.448l-3.952 5.08c-2.702-2.296-5.723-2.943-7.384-3.174-3.412-.472-4.36 1.09-4.534 2.346-.274 1.975 1.043 2.707 6.093 4.23 5.051 1.523 9.235 4.344 8.358 10.674-.902 6.509-7.608 9.01-13.713 8.165-4.219-.585-8.525-1.867-12.151-6.075z" fill="#D3A7E0"/><path d="m13.282 95.208 2.492-31.443 6.28.498 3.523 9.462 3.317 9.764.18.014 4.68-9.13 4.879-8.796 6.55.519-2.491 31.442-6.912-.547 1.185-14.954-.132-.056-3.351 6.145-2.474 4.259-5.331-.423-1.845-4.828-2.269-6.363-.146.125L20.24 95.76l-6.957-.551zm33.173-9.464.587-7.409c.516-6.505 4.946-11.927 13.123-11.28 7.59.602 11.92 6.173 11.362 13.22l-.587 7.41c-.594 7.499-5.852 11.9-13.306 11.31-8.177-.648-11.698-6.7-11.179-13.25zm17.353 1.876.677-8.539c.218-2.755-1.538-5.258-4.881-5.523-3.479-.276-5.305 2.125-5.51 4.7l-.676 8.538c-.215 2.71 1.207 5.415 4.686 5.69 3.343.265 5.468-1.885 5.704-4.866zm32.82 14.193 2.491-31.443 6.957.552-2.491 31.442-6.957-.551zm10.978-11.223.588-7.408c.515-6.506 4.945-11.928 13.122-11.28 7.59.601 11.921 6.172 11.363 13.22l-.587 7.409c-.595 7.499-5.853 11.901-13.307 11.31-8.177-.648-11.698-6.7-11.179-13.25zm17.354 1.876.676-8.539c.219-2.755-1.538-5.258-4.881-5.523-3.478-.276-5.305 2.125-5.509 4.7l-.677 8.538c-.215 2.71 1.208 5.415 4.686 5.69 3.343.265 5.468-1.885 5.705-4.866zm9.388 12.336 2.492-31.443 6.189.49 5.833 10.146 5.305 9.921.094-.037 1.507-19.02 6.957.552-2.491 31.442-6.189-.49-7.08-12.199-4.059-7.868-.094.038-1.507 19.019-6.957-.551z" fill="#FACADE"/><path d="m78.979 100.414 1.998-25.208-8.584-.68.494-6.235L96.966 70.2l-.494 6.234-8.583-.68-1.998 25.208-6.912-.548z" fill="#FFF5F9"/><path d="m4.698 190.846 3.243-31.374 12.486 1.291c4.689.484 8.523 2.612 10.083 6.919.889 2.416.653 5.58.252 9.457-.452 4.372-.873 7.564-2.161 9.891-2.563 4.518-7.134 5.549-12.183 5.027l-11.72-1.211zm7.585-5.503 4.553.47c4.643.48 6.27-2.039 6.69-6.096l.591-5.725c.447-4.328-1.092-6.628-5.464-7.08l-4.418-.457-1.952 18.888zm20.238 8.379 3.243-31.374 22.178 2.293-.643 6.221-15.236-1.576-.657 6.356 12.982 1.342-.62 5.996-12.982-1.342-.68 6.581 15.236 1.575-.643 6.221-22.178-2.293zm22.19-1.806 4.561-4.905c2.66 2.918 5.61 3.906 8.81 4.237 3.02.312 4.883-.953 5.055-2.621.159-1.533-.179-3.117-3.928-3.869-5.89-1.201-11.342-3.541-10.615-10.573.69-6.672 6.722-9.055 11.86-8.524 3.832.396 7.68 1.523 10.787 4.076l-3.774 5.214c-2.78-2.201-5.821-2.743-7.49-2.915-3.425-.355-4.319 1.239-4.45 2.501-.204 1.983 1.137 2.669 6.237 4.016s9.38 4.022 8.723 10.378c-.676 6.536-7.291 9.269-13.422 8.635-4.237-.438-8.585-1.571-12.354-5.65zm27.472 6.94 3.243-31.374 6.942.718-3.243 31.373-6.942-.717zm11.604-10.919.765-7.393c.67-6.491 5.23-11.806 13.388-10.962 5.951.615 9.812 4.249 10.851 9.185l-6.824 1.664c-.272-2.215-1.903-4.069-4.743-4.363-3.471-.359-5.354 1.998-5.62 4.567l-.881 8.52c-.279 2.705 1.073 5.487 4.589 5.85 2.975.308 5.661-1.875 5.955-4.715l.023-.225-6.401-.662.596-5.769 13.253 1.37-.648 6.265c-.68 6.582-6.683 10.881-13.444 10.182-8.16-.843-11.6-6.347-10.859-13.514zm26.606 14.869 3.243-31.374 6.176.639 5.589 10.281 5.066 10.046.095-.036 1.962-18.977 6.942.717-3.244 31.374-6.175-.638-6.786-12.365-3.87-7.963-.094.036-1.962 18.978-6.942-.718zm30.2 3.122 3.243-31.374 22.178 2.293-.643 6.221-15.236-1.576-.657 6.356 12.982 1.342-.62 5.996-12.982-1.342-.68 6.581L173.414 202l-.643 6.221-22.178-2.293z" fill="#FACADE"/><path d="m175.158 208.467 3.244-31.373 13.883 1.435c5.5.568 9.793 4.429 9.169 10.47-.387 3.741-2.706 6.781-6.66 8.013l4.616 13.962-7.844-.81-3.705-12.639-4.507-.466-1.254 12.126-6.942-.718zm8.839-17.628 5.724.591c2.525.261 4.273-.788 4.516-3.132.242-2.344-1.238-3.454-3.582-3.696l-5.95-.615-.708 6.852zm18.493 20.454.769-7.438 7.618.788-.768 7.437-7.619-.787z" fill="#FFF5F9"/><path d="m13.323 145.593-.29-31.539 6.298-.058 4.344 9.114 4.166 9.434.181-.002 3.855-9.507 4.085-9.192 6.57-.061.291 31.54-6.933.063-.138-14.999-.137-.044-2.796 6.416-2.089 4.46-5.347.05-2.263-4.647-2.821-6.138-.135.137.137 14.909-6.978.064zm33.634-.309-.29-31.54 22.295-.205.057 6.253-15.316.141.059 6.39 13.05-.121.056 6.027-13.05.121.06 6.616 15.317-.141.057 6.253-22.295.206zm24.695-.228-.29-31.54 12.552-.115c4.713-.044 8.762 1.641 10.794 5.747 1.154 2.3 1.274 5.471 1.31 9.369.04 4.395-.02 7.613-1.04 10.07-2.041 4.777-6.468 6.314-11.544 6.36l-11.782.109zm6.921-6.318 4.577-.042c4.668-.043 6.002-2.729 5.965-6.808l-.053-5.755c-.04-4.35-1.827-6.463-6.223-6.423l-4.44.041.174 18.987zm21.185 6.059-.29-31.54 6.978-.064.291 31.54-6.979.064z" fill="#FBEDFF"/><path d="m107.867 144.722 11.945-31.652 5.483-.05 12.526 31.426-7.341.068-2.416-6.413-10.559.097-2.297 6.457-7.341.067zm11.759-12.435 6.208-.057-1.211-3.614-1.916-6.237-.181.002-1.756 6.179-1.144 3.727z" fill="#D3A7E0"/></svg>
